X: 11341
T: Eanna's Dance
R: reel
M: 4/4
K: Adorian
|:a~e3 g3a|gedB A3G|EAce a2ac'|bage degb|
a~e3 g^fga|gedB ABAG|EAce c'bab|1 gedB A3b:|2 gedB A3G||
|:EAce abc'a|b~g3 dgbg|a~e3 c3e|dGBd gbag|
EAce abc'a|b~g3 dgbg|dcBd c'bab|1 gedB A3G:|2 gedB A3b||

